X: 5
T: Barbesieux
M: 6/4
L: 1/8
K:Dm clef=treble-8 octave=1
B,12 | D12 | C12 | B,12 | A,12 |
G,12 | F,12 | A,12 | G,12 |
A,12 | A,12 | D12 | C12 |
=B,12 | A,12 | G,12 | F,12 |
E,12 | D,12 | F,12 | G,12 |
F,12 | E,12 | D,12 | D,12 |
D12 | E12 | D12 | C12 |
=B,12 | A,12 | A,12 | B,12 |
A,12 | F,12 | E,12 | D,12 |
D,12 | D,12 |

